dist/assets/images/apartment-b-1.svg

<?xml version="1.0" encoding="UTF-8"?>
<svg width="27px" height="27px" viewBox="0 0 27 27" version="1.1" xmlns="http://www.w3.org/2000/svg" xmlns:xlink="http://www.w3.org/1999/xlink">
    <!-- Generator: Sketch 41.2 (35397) - http://www.bohemiancoding.com/sketch -->
    <title>noun_297770_cc</title>
    <desc>Created with Sketch.</desc>
    <defs></defs>
    <g id="4.-Объект:-Квартира" stroke="none" stroke-width="1" fill="none" fill-rule="evenodd">
        <g id="Объекты-[Desktop-960]" transform="translate(-523.000000, -511.000000)" fill="#FFFFFF">
            <g id="noun_297770_cc" transform="translate(523.000000, 511.000000)">
                <g id="Group">
                    <path d="M26.707,2.29325 L24.707,0.29325 C24.316,-0.09775 23.684,-0.09775 23.293,0.29325 L8.293,15.29325 C8.184,15.40225 8.102,15.53625 8.053,15.68425 L7.053,18.68425 C6.932,19.04325 7.029,19.44025 7.293,19.70725 C7.482,19.89625 7.738,20.00025 8,20.00025 C8.105,20.00025 8.213,19.98225 8.316,19.94825 L11.316,18.94825 C11.462,18.89825 11.594,18.81625 11.707,18.70725 L26.707,3.70725 C27.098,3.31625 27.098,2.68425 26.707,2.29325 Z M10.461,17.12625 L9.58,17.41925 L9.873,16.54025 L24,2.41425 L24.586,3.00025 L10.461,17.12625 Z M25,8.00025 C24.447,8.00025 24,8.44725 24,9.00025 L24,22.00025 C24,23.65425 22.654,25.00025 21,25.00025 L5,25.00025 C3.346,25.00025 2,23.65425 2,22.00025 L2,6.00025 C2,4.34625 3.346,3.00025 5,3.00025 L17,3.00025 C17.553,3.00025 18,2.55325 18,2.00025 C18,1.44725 17.553,1.00025 17,1.00025 L5,1.00025 C2.242,1.00025 0,3.24325 0,6.00025 L0,22.00025 C0,24.75725 2.242,27.00025 5,27.00025 L21,27.00025 C23.758,27.00025 26,24.75725 26,22.00025 L26,9.00025 C26,8.44725 25.553,8.00025 25,8.00025 Z" id="Shape"></path>
                </g>
            </g>
        </g>
    </g>
</svg>

<svg width="27" height="27" viewBox="0 0 27 27" xmlns="http://www.w3.org/2000/svg"><title>noun_297770_cc</title><path d="M26.707 2.293l-2-2a.999.999 0 0 0-1.414 0l-15 15a.994.994 0 0 0-.24.391l-1 3c-.121.36-.024.756.24 1.023a1.002 1.002 0 0 0 1.023.241l3-1c.146-.05.278-.132.391-.24l15-15a.999.999 0 0 0 0-1.415zM10.461 17.126l-.881.293.293-.879L24 2.414l.586.586-14.125 14.126zM25 8a1 1 0 0 0-1 1v13c0 1.654-1.346 3-3 3H5c-1.654 0-3-1.346-3-3V6c0-1.654 1.346-3 3-3h12a1 1 0 1 0 0-2H5C2.242 1 0 3.243 0 6v16c0 2.757 2.242 5 5 5h16c2.758 0 5-2.243 5-5V9a1 1 0 0 0-1-1z" fill="#FFF" fill-rule="evenodd"/></svg>
